svg/splunk.svg

<?xml version="1.0" encoding="UTF-8"?> <svg xmlns="http://www.w3.org/2000/svg" width="110" height="110" viewBox="0 0 110 110" fill="none"><g clip-path="url(#clip0_2808_29091)"><path d="M90.6 109.1H18.6C8.3 109.1 0 100.8 0 90.6V18.6C0 8.3 8.3 0 18.5 0H90.5C100.7 0 109 8.3 109 18.5V90.5C109.1 100.8 100.8 109.1 90.6 109.1Z" fill="url(#paint0_linear_2808_29091)"></path><path d="M73.0001 54.9001C73.0001 55.0001 73.1001 55.1001 73.1001 55.2001C72.6001 55.5001 72.0001 55.7001 71.4001 55.9001C58.7001 61.4001 46.1001 66.9001 33.4001 72.3001C32.9001 72.6001 32.6001 72.8001 32.6001 73.4001C32.7001 76.0001 32.7001 78.6001 32.6001 81.3001C32.5001 82.1001 32.9001 82.1001 33.5001 81.8001C48.8001 75.2001 64.1001 68.7001 79.4001 62.1001C80.1001 61.8001 80.2001 61.5001 80.2001 60.8001C80.1001 56.9001 80.1001 53.0001 80.2001 49.1001C80.2001 48.4001 80.0001 48.1001 79.4001 47.9001C76.6001 46.9001 73.8001 45.9001 71.0001 44.9001C58.6001 40.5001 46.2001 36.1001 33.8001 31.6001C32.7001 31.2001 32.6001 31.2001 32.6001 32.4001C32.6001 35.0001 32.7001 37.7001 32.5001 40.3001C32.4001 41.1001 32.8001 41.5001 33.5001 41.7001C43.7001 45.1001 53.9001 48.5001 64.1001 51.9001C67.2001 53.0001 70.1001 53.9001 73.0001 54.9001Z" fill="#F2F2F2"></path><path d="M73 54.9001C70.1 53.9001 67.2 52.9001 64.3 52.0001C54 48.6001 43.8 45.2001 33.6 41.8001C32.8 41.5001 32.6 41.2001 32.6 40.4001C32.7 37.8001 32.7 35.1001 32.7 32.4001C32.7 31.2001 32.7 31.2001 33.9 31.6001C46.3 36.0001 58.7 40.4001 71 44.9001C73.8 45.9001 76.6 46.9001 79.4 47.9001C80.1 48.1001 80.3 48.5001 80.2 49.1001C80.1 53.0001 80.1 56.9001 80.2 60.8001C80.2 61.5001 80 61.8001 79.4 62.1001C64 68.7001 48.8 75.4001 33.4 81.9001C32.8 82.2001 32.5 82.2001 32.5 81.4001C32.6 78.8001 32.6 76.2001 32.5 73.5001C32.5 72.9001 32.7 72.6001 33.3 72.4001C46 66.9001 58.6 61.4001 71.3 56.0001C71.8 55.7001 72.4 55.5001 73 55.3001C73 55.1001 73 55.0001 73 54.9001Z" fill="#F2F2F2"></path></g><defs><linearGradient id="paint0_linear_2808_29091" x1="117.961" y1="111.505" x2="-4.3962" y2="1.6059" gradientUnits="userSpaceOnUse"><stop stop-color="#78B43A"></stop><stop offset="0.9518" stop-color="#A2CE6A"></stop></linearGradient><clipPath id="clip0_2808_29091"><rect width="109.1" height="109.1" fill="white"></rect></clipPath></defs></svg>

<svg xmlns="http://www.w3.org/2000/svg" width="110" height="110" fill="none"><g clip-path="url(#a)"><path fill="url(#b)" d="M90.6 109.1h-72C8.3 109.1 0 100.8 0 90.6v-72C0 8.3 8.3 0 18.5 0h72C100.7 0 109 8.3 109 18.5v72c.1 10.3-8.2 18.6-18.4 18.6Z"/><path fill="#F2F2F2" d="M73 54.9c0 .1.1.2.1.3-.5.3-1.1.5-1.7.7-12.7 5.5-25.3 11-38 16.4-.5.3-.8.5-.8 1.1.1 2.6.1 5.2 0 7.9-.1.8.3.8.9.5 15.3-6.6 30.6-13.1 45.9-19.7.7-.3.8-.6.8-1.3-.1-3.9-.1-7.8 0-11.7 0-.7-.2-1-.8-1.2l-8.4-3c-12.4-4.4-24.8-8.8-37.2-13.3-1.1-.4-1.2-.4-1.2.8 0 2.6.1 5.3-.1 7.9-.1.8.3 1.2 1 1.4l30.6 10.2c3.1 1.1 6 2 8.9 3Z"/><path fill="#F2F2F2" d="M73 54.9c-2.9-1-5.8-2-8.7-2.9-10.3-3.4-20.5-6.8-30.7-10.2-.8-.3-1-.6-1-1.4.1-2.6.1-5.3.1-8 0-1.2 0-1.2 1.2-.8C46.3 36 58.7 40.4 71 44.9l8.4 3c.7.2.9.6.8 1.2-.1 3.9-.1 7.8 0 11.7 0 .7-.2 1-.8 1.3-15.4 6.6-30.6 13.3-46 19.8-.6.3-.9.3-.9-.5.1-2.6.1-5.2 0-7.9 0-.6.2-.9.8-1.1 12.7-5.5 25.3-11 38-16.4.5-.3 1.1-.5 1.7-.7v-.4Z"/></g><defs><linearGradient id="b" x1="117.961" x2="-4.396" y1="111.505" y2="1.606" gradientUnits="userSpaceOnUse"><stop stop-color="#78B43A"/><stop offset=".952" stop-color="#A2CE6A"/></linearGradient><clipPath id="a"><path fill="#fff" d="M0 0h109.1v109.1H0z"/></clipPath></defs></svg>
